X:1
T:Paraclete, 77.77.77
T:Paraclete, 77.77.77
T:Anonymous, 1889
T:Public Domain Courtesy of the Cyber Hymnal™
C:Anonymous, 1889
Z:Public Domain
Z:Courtesy of the Cyber Hymnal™
%%score ( 1 2 ) ( 3 4 )
L:1/8
Q:1/4=110
M:4/4
K:E
V:1 treble 
V:2 treble 
V:3 bass 
V:4 bass 
V:1
 [EG]2 [GB]2 [GB]2 [GB]2 | [EB]3 [EA] [EG]4 | E2 E2 [EA]2 [EG]2 | [DF]3 [EG] [DF]4 | %4
 E2 [Ec]2 [DB]2 [DF]2 | E2 [Ec]2 [DB]4 | [EB]2 [Ee]2 [Fd]2 [DB]2 | [Ec]3 [Ec] [DB]4 | %8
 [EB]2 [B,E]2 [DF]2 E2 | G3 z G [DF]4 | [B,E]2 E2 [EF]2 [EA]2 | G3 z F [B,E]4 |] %12
V:2
 x8 | x8 | E2 E2 x4 | x8 | E2 x6 | E2 x6 | x8 | x8 | x6 E2 | D2 E2 x5 | x2 E2 x4 | E2 D2 x5 |] %12
V:3
 [E,B,]2 [E,B,]2 [E,B,]2 [E,B,]2 | [E,C]3 [E,C] [E,B,]4 | [E,G,]2 [E,G,]2 [E,C]2 [E,B,]2 | %3
 [B,,B,]3 [B,,B,] [B,,B,]4 | [^A,,F,]2 [A,,F,]2 [B,,B,]2 [B,,B,]2 | [F,^A,]2 [F,A,]2 B,4 | %6
 [G,B,]2 [G,B,]2 [F,B,]2 [F,B,]2 | [F,^A,]2 [F,A,]2 [B,,B,]4 | [E,G,]2 [G,B,]2 [A,B,]2 [G,B,]2 | %9
 B,3 z B, B,4 | [G,,B,]2 [G,B,]2 [A,C]2 [F,C]2 | B,2 [B,,A,]2 [E,G,]4 x |] %12
V:4
 x8 | x8 | x8 | x8 | x8 | x4 B,2 =A,2 | x8 | x8 | x8 | F,2 (E,2 B,,2 A,,2) x | x8 | B,2 x7 |] %12

